;FLAVOR:Marlin
;TIME:4580
;Filament used: 376.87m
;Layer height: 2
;MINX:-285.12
;MINY:-283.683
;MINZ:2
;MAXX:-17.981
;MAXY:-16.543
;MAXZ:92
;Generated with Cura_SteamEngine master
M104 S200
M105
M109 S200
M82 ;absolute extrusion mode
G28 ;Home
G1 Z15.0 F6000 ;Move the platform down 15mm
;Prime the extruder
G92 E0
G1 F200 E3
G92 E0
G92 E0
G92 E0
G1 F1500 E-6.5
;LAYER_COUNT:46
;LAYER:0
M107
;MESH:cube.stl
G0 F3600 X-35.981 Y-265.683 Z2
;TYPE:WALL-INNER
G1 F1500 E0
G1 F1800 X-35.981 Y-34.543 E434.7872
G1 X-267.12 Y-34.543 E869.57253
G1 X-267.12 Y-265.683 E1304.35973
G1 X-35.981 Y-265.683 E1739.14505
G0 F3600 X-29.981 Y-271.683
G92 E0
G1 F1800 X-29.981 Y-28.543 E457.35987
G1 X-273.12 Y-28.543 E914.71786
G1 X-273.12 Y-271.683 E1372.07773
G1 X-29.981 Y-271.683 E1829.43572
G0 F3600 X-24.051 Y-277.613
G0 X-23.981 Y-277.683
G92 E0
G1 F1800 X-23.981 Y-22.543 E479.93254
G1 X-279.12 Y-22.543 E959.8632
G1 X-279.12 Y-277.683 E1439.79574
G1 X-23.981 Y-277.683 E1919.72639
G0 F3600 X-24.051 Y-277.613
G0 X-17.981 Y-283.683
;TYPE:WALL-OUTER
G92 E0
G1 F1800 X-17.981 Y-16.543 E502.50521
G1 X-285.12 Y-16.543 E1005.00853
G1 X-285.12 Y-283.683 E1507.51374
G1 X-17.981 Y-283.683 E2010.01707
G0 F3600 X-17.981 Y-283.483
G0 X-24.051 Y-277.613
G0 X-41.971 Y-259.693
;TYPE:SKIN
G92 E0
G1 F1800 X-41.971 Y-40.533 E412.25216
G1 X-261.13 Y-40.533 E824.50243
G1 X-261.13 Y-259.693 E1236.75459
G1 X-41.971 Y-259.693 E1649.00487
G0 F3600 X-53.345 Y-256.992
G92 E0
G1 F1800 X-44.67 Y-248.316 E23.07869
G0 F3600 X-44.67 Y-239.831
G1 F1800 X-61.83 Y-256.992 E68.7293
G0 F3600 X-70.316 Y-256.992
G1 F1800 X-44.67 Y-231.346 E136.95316
G0 F3600 X-44.67 Y-222.86
G1 F1800 X-78.801 Y-256.992 E227.75027
G0 F3600 X-87.286 Y-256.992
G1 F1800 X-44.67 Y-214.375 E341.11929
G0 F3600 X-44.67 Y-205.89
G1 F1800 X-95.771 Y-256.992 E477.06024
G0 F3600 X-104.257 Y-256.992
G1 F1800 X-44.67 Y-197.405 E635.57444
G0 F3600 X-44.67 Y-188.919
G1 F1800 X-112.742 Y-256.992 E816.66188
G0 F3600 X-121.227 Y-256.992
G1 F1800 X-44.67 Y-180.434 E1020.32125
G0 F3600 X-44.67 Y-171.949
G1 F1800 X-129.713 Y-256.992 E1246.55386
G0 F3600 X-138.198 Y-256.992
G1 F1800 X-44.67 Y-163.463 E1495.35973
G0 F3600 X-44.67 Y-154.978
G1 F1800 X-146.683 Y-256.992 E1766.73751
G0 F3600 X-155.168 Y-256.992
G92 E0
G1 F1800 X-44.67 Y-146.493 E293.9497
G0 F3600 X-44.67 Y-138.008
G1 F1800 X-163.654 Y-256.992 E610.47265
G0 F3600 X-172.139 Y-256.992
G1 F1800 X-44.67 Y-129.522 E949.56886
G0 F3600 X-44.67 Y-121.037
G1 F1800 X-180.624 Y-256.992 E1311.23698
G0 F3600 X-189.11 Y-256.992
G1 F1800 X-44.67 Y-112.552 E1695.47835
G0 F3600 X-44.67 Y-104.067
G92 E0
G1 F1800 X-197.595 Y-256.992 E406.81329
G0 F3600 X-206.08 Y-256.992
G1 F1800 X-44.67 Y-95.581 E836.19983
G0 F3600 X-44.67 Y-87.096
G1 F1800 X-214.565 Y-256.992 E1288.15829
G0 F3600 X-223.051 Y-256.992
G1 F1800 X-44.67 Y-78.611 E1762.68999
G0 F3600 X-44.67 Y-70.125
G92 E0
G1 F1800 X-231.536 Y-256.992 E497.10496
G0 F3600 X-240.021 Y-256.992
G1 F1800 X-44.67 Y-61.64 E1016.78183
G0 F3600 X-44.67 Y-53.155
G1 F1800 X-248.507 Y-256.992 E1559.03196
G0 F3600 X-256.992 Y-256.992
G1 F1800 X-44.67 Y-44.67 E2123.854
G0 F3600 X-51.718 Y-43.233
G92 E0
G1 F1800 X-258.429 Y-249.944 E549.89558
G0 F3600 X-258.429 Y-241.459
G1 F1800 X-60.203 Y-43.233 E1077.21924
G0 F3600 X-68.689 Y-43.233
G1 F1800 X-258.429 Y-232.974 E1581.96966
G0 F3600 X-258.429 Y-224.488
G92 E0
G1 F1800 X-77.174 Y-43.233 E482.17716
G0 F3600 X-85.659 Y-43.233
G1 F1800 X-258.429 Y-216.003 E941.78241
G0 F3600 X-258.429 Y-207.518
G1 F1800 X-94.144 Y-43.233 E1378.81573
G0 F3600 X-102.63 Y-43.233
G1 F1800 X-258.429 Y-199.032 E1793.27448
G0 F3600 X-258.429 Y-190.547
G92 E0
G1 F1800 X-111.115 Y-43.233 E391.88683
G0 F3600 X-119.6 Y-43.233
G1 F1800 X-258.429 Y-182.062 E761.20173
G0 F3600 X-258.429 Y-173.577
G1 F1800 X-128.086 Y-43.233 E1107.94339
G0 F3600 X-136.571 Y-43.233
G1 F1800 X-258.429 Y-165.091 E1432.1118
G0 F3600 X-258.429 Y-156.606
G1 F1800 X-145.056 Y-43.233 E1733.70829
G0 F3600 X-153.541 Y-43.233
G92 E0
G1 F1800 X-258.429 Y-148.121 E279.02457
G0 F3600 X-258.429 Y-139.635
G1 F1800 X-162.027 Y-43.233 E535.47456
G0 F3600 X-170.512 Y-43.233
G1 F1800 X-258.429 Y-131.15 E769.35263
G0 F3600 X-258.429 Y-122.665
G1 F1800 X-178.997 Y-43.233 E980.65878
G0 F3600 X-187.482 Y-43.233
G1 F1800 X-258.429 Y-114.18 E1169.39301
G0 F3600 X-258.429 Y-105.694
G1 F1800 X-195.968 Y-43.233 E1335.55267
G0 F3600 X-204.453 Y-43.233
G1 F1800 X-258.429 Y-97.209 E1479.1404
G0 F3600 X-258.429 Y-88.724
G1 F1800 X-212.938 Y-43.233 E1600.15621
G0 F3600 X-221.424 Y-43.233
G92 E0
G1 F1800 X-258.429 Y-80.238 E98.44123
G0 F3600 X-258.429 Y-71.753
G1 F1800 X-229.909 Y-43.233 E174.31055
G0 F3600 X-238.394 Y-43.233
G1 F1800 X-258.429 Y-63.268 E227.60795
G0 F3600 X-258.429 Y-54.783
G1 F1800 X-246.879 Y-43.233 E258.33342
G0 F3600 X-255.365 Y-43.233
G1 F1800 X-258.429 Y-46.297 E266.48432
;MESH:NONMESH
G0 F600 X-258.429 Y-46.297 Z4
G0 F3600 X-35.981 Y-265.683
;TIME_ELAPSED:436.924476
;LAYER:1
M106 S255
;TYPE:WALL-INNER
;MESH:cube.stl
G1 F2700 X-35.981 Y-34.543 E701.27152
G1 X-267.12 Y-34.543 E1136.05684
G1 X-267.12 Y-265.683 E1570.84405
G92 E0
G1 X-35.981 Y-265.683 E434.78532
G0 F5400 X-29.981 Y-271.683
G1 F2700 X-29.981 Y-28.543 E892.14519
G1 X-273.12 Y-28.543 E1349.50318
G1 X-273.12 Y-271.683 E1806.86306
G92 E0
G1 X-29.981 Y-271.683 E457.35799
G0 F5400 X-24.051 Y-277.613
G0 X-23.981 Y-277.683
G1 F2700 X-23.981 Y-22.543 E937.29053
G1 X-279.12 Y-22.543 E1417.22119
G1 X-279.12 Y-277.683 E1897.15373
G92 E0
G1 X-23.981 Y-277.683 E479.93066
G0 F5400 X-24.051 Y-277.613
G0 X-17.981 Y-283.683
;TYPE:WALL-OUTER
G1 F1800 X-17.981 Y-16.543 E982.43587
G1 X-285.12 Y-16.543 E1484.93919
G1 X-285.12 Y-283.683 E1987.4444
G92 E0
G1 X-17.981 Y-283.683 E502.50333
G0 F5400 X-17.981 Y-283.483
G0 X-24.051 Y-277.613
G0 X-41.971 Y-259.693
;TYPE:SKIN
G1 F1800 X-41.971 Y-40.533 E914.75548
G1 X-261.13 Y-40.533 E1327.00576
G1 X-261.13 Y-259.693 E1739.25792
G92 E0
G1 X-41.971 Y-259.693 E412.25028
G0 F5400 X-258.429 Y-250.687
G1 F1800 X-252.123 Y-256.993 E429.02559
G0 F5400 X-243.638 Y-256.993
G1 F1800 X-258.429 Y-242.202 E468.37282
G0 F5400 X-258.429 Y-233.717
G1 F1800 X-235.153 Y-256.993 E530.29197
G0 F5400 X-226.668 Y-256.993
G1 F1800 X-258.429 Y-225.231 E614.78437
G0 F5400 X-258.429 Y-216.746
G1 F1800 X-218.182 Y-256.993 E721.85002
G0 F5400 X-209.697 Y-256.993
G1 F1800 X-258.429 Y-208.261 E851.48759
G0 F5400 X-258.429 Y-199.776
G1 F1800 X-201.212 Y-256.993 E1003.69708
G0 F5400 X-192.726 Y-256.993
G1 F1800 X-258.429 Y-191.29 E1178.48114
G0 F5400 X-258.429 Y-182.805
G1 F1800 X-184.241 Y-256.993 E1375.83713
G0 F5400 X-175.756 Y-256.993
G1 F1800 X-258.429 Y-174.32 E1595.76504
G0 F5400 X-258.429 Y-165.834
G92 E0
G1 F1800 X-167.271 Y-256.993 E242.50116
G0 F5400 X-158.785 Y-256.993
G1 F1800 X-258.429 Y-157.349 E507.57556
G0 F5400 X-258.429 Y-148.864
G1 F1800 X-150.3 Y-256.993 E795.22189
G0 F5400 X-141.815 Y-256.993
G1 F1800 X-258.429 Y-140.379 E1105.44013
G0 F5400 X-258.429 Y-131.893
G1 F1800 X-133.329 Y-256.993 E1438.23295
G0 F5400 X-124.844 Y-256.993
G1 F1800 X-258.429 Y-123.408 E1793.5977
G0 F5400 X-258.429 Y-114.923
G92 E0
G1 F1800 X-116.359 Y-256.993 E377.93666
G0 F5400 X-107.874 Y-256.993
G1 F1800 X-258.429 Y-106.437 E778.44657
G0 F5400 X-258.429 Y-97.952
G1 F1800 X-99.388 Y-256.993 E1201.52973
G0 F5400 X-90.903 Y-256.993
G1 F1800 X-258.429 Y-89.467 E1647.18481
G0 F5400 X-258.429 Y-80.982
G92 E0
G1 F1800 X-82.418 Y-256.993 E468.227
G0 F5400 X-73.932 Y-256.993
G1 F1800 X-258.429 Y-72.496 E959.02858
G0 F5400 X-258.429 Y-64.011
G1 F1800 X-65.447 Y-256.993 E1472.40208
G0 F5400 X-56.962 Y-256.993
G1 F1800 X-258.429 Y-55.526 E2008.34749
G0 F5400 X-258.429 Y-47.04
G92 E0
G1 F1800 X-48.477 Y-256.993 E558.51867
G0 F5400 X-44.67 Y-252.314
G1 F1800 X-253.752 Y-43.232 E1114.72162
G0 F5400 X-245.267 Y-43.232
G1 F1800 X-44.67 Y-243.828 E1648.35132
G0 F5400 X-44.67 Y-235.343
G92 E0
G1 F1800 X-236.781 Y-43.232 E511.05645
G0 F5400 X-228.296 Y-43.232
G1 F1800 X-44.67 Y-226.858 E999.54098
G0 F5400 X-44.67 Y-218.372
G1 F1800 X-219.811 Y-43.232 E1465.45227
G0 F5400 X-211.325 Y-43.232
G1 F1800 X-44.67 Y-209.887 E1908.7903
G0 F5400 X-44.67 Y-201.402
G92 E0
G1 F1800 X-202.84 Y-43.232 E420.76611
G0 F5400 X-194.355 Y-43.232
G1 F1800 X-44.67 Y-192.917 E818.96031
G0 F5400 X-44.67 Y-184.431
G1 F1800 X-185.87 Y-43.232 E1194.58125
G0 F5400 X-177.384 Y-43.232
G1 F1800 X-44.67 Y-175.946 E1547.62895
G0 F5400 X-44.67 Y-167.461
G1 F1800 X-168.899 Y-43.232 E1878.10473
G0 F5400 X-160.414 Y-43.232
G92 E0
G1 F1800 X-44.67 Y-158.975 E307.90253
G0 F5400 X-44.67 Y-150.49
G1 F1800 X-151.928 Y-43.232 E593.2318
G0 F5400 X-143.443 Y-43.232
G1 F1800 X-44.67 Y-142.005 E855.98916
G0 F5400 X-44.67 Y-133.52
G1 F1800 X-134.958 Y-43.232 E1096.1746
G0 F5400 X-126.473 Y-43.232
G1 F1800 X-44.67 Y-125.034 E1313.78679
G0 F5400 X-44.67 Y-116.549
G1 F1800 X-117.987 Y-43.232 E1508.82573
G0 F5400 X-109.502 Y-43.232
G1 F1800 X-44.67 Y-108.064 E1681.29275
G0 F5400 X-44.67 Y-99.579
G92 E0
G1 F1800 X-101.017 Y-43.232 E149.8951
G0 F5400 X-92.531 Y-43.232
G1 F1800 X-44.67 Y-91.093 E277.21562
G0 F5400 X-44.67 Y-82.608
G1 F1800 X-84.046 Y-43.232 E381.96423
G0 F5400 X-75.561 Y-43.232
G1 F1800 X-44.67 Y-74.123 E464.14091
G0 F5400 X-44.67 Y-65.637
G1 F1800 X-67.076 Y-43.232 E523.74434
G0 F5400 X-58.59 Y-43.232
G1 F1800 X-44.67 Y-57.152 E560.77453
G0 F5400 X-44.67 Y-48.667
G1 F1800 X-50.105 Y-43.232 E575.23279
;MESH:NONMESH
G0 F600 X-50.105 Y-43.232 Z6
G0 F5400 X-35.981 Y-265.683
;TIME_ELAPSED:832.312705
;LAYER:2
;TYPE:WALL-INNER
;MESH:cube.stl
G1 F3600 X-35.981 Y-34.543 E1010.02
G1 X-267.12 Y-34.543 E1444.80532
G1 X-267.12 Y-265.683 E1879.59252
G92 E0
G1 X-35.981 Y-265.683 E434.78532
G0 F7200 X-29.981 Y-271.683
G1 F3600 X-29.981 Y-28.543 E892.14519
G1 X-273.12 Y-28.543 E1349.50318
G1 X-273.12 Y-271.683 E1806.86306
G92 E0
G1 X-29.981 Y-271.683 E457.35799
G0 F7200 X-24.051 Y-277.613
G0 X-23.981 Y-277.683
G1 F3600 X-23.981 Y-22.543 E937.29053
G1 X-279.12 Y-22.543 E1417.22119
G1 X-279.12 Y-277.683 E1897.15373
G92 E0
G1 X-23.981 Y-277.683 E479.93066
G0 F7200 X-24.051 Y-277.613
G0 X-17.981 Y-283.683
;TYPE:WALL-OUTER
G1 F1800 X-17.981 Y-16.543 E982.43587
G1 X-285.12 Y-16.543 E1484.93919
G1 X-285.12 Y-283.683 E1987.4444
G92 E0
G1 X-17.981 Y-283.683 E502.50333
G0 F7200 X-17.981 Y-283.483
;MESH:NONMESH
G0 F600 X-17.981 Y-283.483 Z8
G0 F7200 X-24.051 Y-277.613
G0 X-35.981 Y-265.683
;TIME_ELAPSED:917.503108
;LAYER:3
;TYPE:WALL-INNER
;MESH:cube.stl
G1 F3600 X-35.981 Y-34.543 E937.29053
G1 X-267.12 Y-34.543 E1372.07585
G1 X-267.12 Y-265.683 E1806.86306
G92 E0
G1 X-35.981 Y-265.683 E434.78532
G0 F7200 X-29.981 Y-271.683
G1 F3600 X-29.981 Y-28.543 E892.14519
G1 X-273.12 Y-28.543 E1349.50318
G1 X-273.12 Y-271.683 E1806.86306
G92 E0
G1 X-29.981 Y-271.683 E457.35799
G0 F7200 X-24.051 Y-277.613
G0 X-23.981 Y-277.683
G1 F3600 X-23.981 Y-22.543 E937.29053
G1 X-279.12 Y-22.543 E1417.22119
G1 X-279.12 Y-277.683 E1897.15373
G92 E0
G1 X-23.981 Y-277.683 E479.93066
G0 F7200 X-24.051 Y-277.613
G0 X-17.981 Y-283.683
;TYPE:WALL-OUTER
G1 F1800 X-17.981 Y-16.543 E982.43587
G1 X-285.12 Y-16.543 E1484.93919
G1 X-285.12 Y-283.683 E1987.4444
G92 E0
G1 X-17.981 Y-283.683 E502.50333
G0 F7200 X-17.981 Y-283.483
;MESH:NONMESH
G0 F600 X-17.981 Y-283.483 Z10
G0 F7200 X-24.051 Y-277.613
G0 X-35.981 Y-265.683
;TIME_ELAPSED:1002.693474
;LAYER:4
;TYPE:WALL-INNER
;MESH:cube.stl
G1 F3600 X-35.981 Y-34.543 E937.29053
G1 X-267.12 Y-34.543 E1372.07585
G1 X-267.12 Y-265.683 E1806.86306
G92 E0
G1 X-35.981 Y-265.683 E434.78532
G0 F7200 X-29.981 Y-271.683
G1 F3600 X-29.981 Y-28.543 E892.14519
G1 X-273.12 Y-28.543 E1349.50318
G1 X-273.12 Y-271.683 E1806.86306
G92 E0
G1 X-29.981 Y-271.683 E457.35799
G0 F7200 X-24.051 Y-277.613
G0 X-23.981 Y-277.683
G1 F3600 X-23.981 Y-22.543 E937.29053
G1 X-279.12 Y-22.543 E1417.22119
G1 X-279.12 Y-277.683 E1897.15373
G92 E0
G1 X-23.981 Y-277.683 E479.93066
G0 F7200 X-24.051 Y-277.613
G0 X-17.981 Y-283.683
;TYPE:WALL-OUTER
G1 F1800 X-17.981 Y-16.543 E982.43587
G1 X-285.12 Y-16.543 E1484.93919
G1 X-285.12 Y-283.683 E1987.4444
G92 E0
G1 X-17.981 Y-283.683 E502.50333
G0 F7200 X-17.981 Y-283.483
;MESH:NONMESH
G0 F600 X-17.981 Y-283.483 Z12
G0 F7200 X-24.051 Y-277.613
G0 X-35.981 Y-265.683
;TIME_ELAPSED:1087.883839
;LAYER:5
;TYPE:WALL-INNER
;MESH:cube.stl
G1 F3600 X-35.981 Y-34.543 E937.29053
G1 X-267.12 Y-34.543 E1372.07585
G1 X-267.12 Y-265.683 E1806.86306
G92 E0
G1 X-35.981 Y-265.683 E434.78532
G0 F7200 X-29.981 Y-271.683
G1 F3600 X-29.981 Y-28.543 E892.14519
G1 X-273.12 Y-28.543 E1349.50318
G1 X-273.12 Y-271.683 E1806.86306
G92 E0
G1 X-29.981 Y-271.683 E457.35799
G0 F7200 X-24.051 Y-277.613
G0 X-23.981 Y-277.683
G1 F3600 X-23.981 Y-22.543 E937.29053
G1 X-279.12 Y-22.543 E1417.22119
G1 X-279.12 Y-277.683 E1897.15373
G92 E0
G1 X-23.981 Y-277.683 E479.93066
G0 F7200 X-24.051 Y-277.613
G0 X-17.981 Y-283.683
;TYPE:WALL-OUTER
G1 F1800 X-17.981 Y-16.543 E982.43587
G1 X-285.12 Y-16.543 E1484.93919
G1 X-285.12 Y-283.683 E1987.4444
G92 E0
G1 X-17.981 Y-283.683 E502.50333
G0 F7200 X-17.981 Y-283.483
;MESH:NONMESH
G0 F600 X-17.981 Y-283.483 Z14
G0 F7200 X-24.051 Y-277.613
G0 X-35.981 Y-265.683
;TIME_ELAPSED:1173.074205
;LAYER:6
;TYPE:WALL-INNER
;MESH:cube.stl
G1 F3600 X-35.981 Y-34.543 E937.29053
G1 X-267.12 Y-34.543 E1372.07585
G1 X-267.12 Y-265.683 E1806.86306
G92 E0
G1 X-35.981 Y-265.683 E434.78532
G0 F7200 X-29.981 Y-271.683
G1 F3600 X-29.981 Y-28.543 E892.14519
G1 X-273.12 Y-28.543 E1349.50318
G1 X-273.12 Y-271.683 E1806.86306
G92 E0
G1 X-29.981 Y-271.683 E457.35799
G0 F7200 X-24.051 Y-277.613
G0 X-23.981 Y-277.683
G1 F3600 X-23.981 Y-22.543 E937.29053
G1 X-279.12 Y-22.543 E1417.22119
G1 X-279.12 Y-277.683 E1897.15373
G92 E0
G1 X-23.981 Y-277.683 E479.93066
G0 F7200 X-24.051 Y-277.613
G0 X-17.981 Y-283.683
;TYPE:WALL-OUTER
G1 F1800 X-17.981 Y-16.543 E982.43587
G1 X-285.12 Y-16.543 E1484.93919
G1 X-285.12 Y-283.683 E1987.4444
G92 E0
G1 X-17.981 Y-283.683 E502.50333
G0 F7200 X-17.981 Y-283.483
;MESH:NONMESH
G0 F600 X-17.981 Y-283.483 Z16
G0 F7200 X-24.051 Y-277.613
G0 X-35.981 Y-265.683
;TIME_ELAPSED:1258.264571
;LAYER:7
;TYPE:WALL-INNER
;MESH:cube.stl
G1 F3600 X-35.981 Y-34.543 E937.29053
G1 X-267.12 Y-34.543 E1372.07585
G1 X-267.12 Y-265.683 E1806.86306
G92 E0
G1 X-35.981 Y-265.683 E434.78532
G0 F7200 X-29.981 Y-271.683
G1 F3600 X-29.981 Y-28.543 E892.14519
G1 X-273.12 Y-28.543 E1349.50318
G1 X-273.12 Y-271.683 E1806.86306
G92 E0
G1 X-29.981 Y-271.683 E457.35799
G0 F7200 X-24.051 Y-277.613
G0 X-23.981 Y-277.683
G1 F3600 X-23.981 Y-22.543 E937.29053
G1 X-279.12 Y-22.543 E1417.22119
G1 X-279.12 Y-277.683 E1897.15373
G92 E0
G1 X-23.981 Y-277.683 E479.93066
G0 F7200 X-24.051 Y-277.613
G0 X-17.981 Y-283.683
;TYPE:WALL-OUTER
G1 F1800 X-17.981 Y-16.543 E982.43587
G1 X-285.12 Y-16.543 E1484.93919
G1 X-285.12 Y-283.683 E1987.4444
G92 E0
G1 X-17.981 Y-283.683 E502.50333
G0 F7200 X-17.981 Y-283.483
;MESH:NONMESH
G0 F600 X-17.981 Y-283.483 Z18
G0 F7200 X-24.051 Y-277.613
G0 X-35.981 Y-265.683
;TIME_ELAPSED:1343.454937
;LAYER:8
;TYPE:WALL-INNER
;MESH:cube.stl
G1 F3600 X-35.981 Y-34.543 E937.29053
G1 X-267.12 Y-34.543 E1372.07585
G1 X-267.12 Y-265.683 E1806.86306
G92 E0
G1 X-35.981 Y-265.683 E434.78532
G0 F7200 X-29.981 Y-271.683
G1 F3600 X-29.981 Y-28.543 E892.14519
G1 X-273.12 Y-28.543 E1349.50318
G1 X-273.12 Y-271.683 E1806.86306
G92 E0
G1 X-29.981 Y-271.683 E457.35799
G0 F7200 X-24.051 Y-277.613
G0 X-23.981 Y-277.683
G1 F3600 X-23.981 Y-22.543 E937.29053
G1 X-279.12 Y-22.543 E1417.22119
G1 X-279.12 Y-277.683 E1897.15373
G92 E0
G1 X-23.981 Y-277.683 E479.93066
G0 F7200 X-24.051 Y-277.613
G0 X-17.981 Y-283.683
;TYPE:WALL-OUTER
G1 F1800 X-17.981 Y-16.543 E982.43587
G1 X-285.12 Y-16.543 E1484.93919
G1 X-285.12 Y-283.683 E1987.4444
G92 E0
G1 X-17.981 Y-283.683 E502.50333
G0 F7200 X-17.981 Y-283.483
;MESH:NONMESH
G0 F600 X-17.981 Y-283.483 Z20
G0 F7200 X-24.051 Y-277.613
G0 X-35.981 Y-265.683
;TIME_ELAPSED:1428.645302
;LAYER:9
;TYPE:WALL-INNER
;MESH:cube.stl
G1 F3600 X-35.981 Y-34.543 E937.29053
G1 X-267.12 Y-34.543 E1372.07585
G1 X-267.12 Y-265.683 E1806.86306
G92 E0
