;FLAVOR:Marlin
;TIME:5520
;Filament used: 455.352m
;Layer height: 2
;MINX:-147
;MINY:-147
;MINZ:2
;MAXX:147
;MAXY:147
;MAXZ:100
;Generated with Cura_SteamEngine master
M104 S200
M105
M109 S200
M82 ;absolute extrusion mode
G28 ;Home
G1 Z15.0 F6000 ;Move the platform down 15mm
;Prime the extruder
G92 E0
G1 F200 E3
G92 E0
G92 E0
G92 E0
G1 F1500 E-6.5
;LAYER_COUNT:50
;LAYER:0
M107
;MESH:cube.stl
G0 F3600 X-129 Y129 Z2
;TYPE:WALL-INNER
G1 F1500 E0
G1 F1800 X-129 Y-129 E485.31236
G1 X129 Y-129 E970.62472
G1 X129 Y129 E1455.93707
G1 X-129 Y129 E1941.24943
G0 F3600 X-135 Y135
G92 E0
G1 F1800 X-135 Y-135 E507.88503
G1 X135 Y-135 E1015.77005
G1 X135 Y135 E1523.65508
G1 X-135 Y135 E2031.5401
G0 F3600 X-140.93 Y140.93
G0 X-141 Y141
G92 E0
G1 F1800 X-141 Y-141 E530.45769
G1 X141 Y-141 E1060.91539
G1 X141 Y141 E1591.37308
G92 E0
G1 X-141 Y141 E530.45769
G0 F3600 X-140.93 Y140.93
G0 X-147 Y147
;TYPE:WALL-OUTER
G1 F1800 X-147 Y-147 E1083.48806
G1 X147 Y-147 E1636.51842
G92 E0
G1 X147 Y147 E553.03036
G1 X-147 Y147 E1106.06072
G0 F3600 X-147 Y146.8
G0 X-140.93 Y140.93
G0 X-123.01 Y123.01
;TYPE:SKIN
G1 F1800 X-123.01 Y-123.01 E1568.83804
G92 E0
G1 X123.01 Y-123.01 E462.77731
G1 X123.01 Y123.01 E925.55462
G1 X-123.01 Y123.01 E1388.33193
G0 F3600 X-120.309 Y117.277
G1 F1800 X-117.277 Y120.309 E1396.3977
G0 F3600 X-108.792 Y120.309
G1 F1800 X-120.309 Y108.792 E1427.03539
G0 F3600 X-120.309 Y100.307
G1 F1800 X-100.307 Y120.309 E1480.245
G0 F3600 X-91.822 Y120.309
G1 F1800 X-120.309 Y91.822 E1556.02653
G0 F3600 X-120.309 Y83.336
G1 F1800 X-83.336 Y120.309 E1654.38264
G0 F3600 X-74.851 Y120.309
G92 E0
G1 F1800 X-120.309 Y74.851 E120.92803
G0 F3600 X-120.309 Y66.366
G1 F1800 X-66.366 Y120.309 E264.42797
G0 F3600 X-57.88 Y120.309
G1 F1800 X-120.309 Y57.88 E430.5025
G0 F3600 X-120.309 Y49.395
G1 F1800 X-49.395 Y120.309 E619.14894
G0 F3600 X-40.91 Y120.309
G1 F1800 X-120.309 Y40.91 E830.36731
G0 F3600 X-120.309 Y32.425
G1 F1800 X-32.425 Y120.309 E1064.15759
G0 F3600 X-23.939 Y120.309
G1 F1800 X-120.309 Y23.939 E1320.52246
G0 F3600 X-120.309 Y15.454
G1 F1800 X-15.454 Y120.309 E1599.45924
G0 F3600 X-6.969 Y120.309
G92 E0
G1 F1800 X-120.309 Y6.969 E301.5087
G0 F3600 X-120.309 Y-1.516
G1 F1800 X1.516 Y120.309 E625.58932
G0 F3600 X10.001 Y120.309
G1 F1800 X-120.309 Y-10.001 E972.24186
G0 F3600 X-120.309 Y-18.486
G1 F1800 X18.486 Y120.309 E1341.46632
G0 F3600 X26.971 Y120.309
G1 F1800 X-120.309 Y-26.971 E1733.2627
G0 F3600 X-120.309 Y-35.457
G92 E0
G1 F1800 X35.457 Y120.309 E414.37096
G0 F3600 X43.942 Y120.309
G1 F1800 X-120.309 Y-43.942 E851.31384
G0 F3600 X-120.309 Y-52.427
G1 F1800 X52.427 Y120.309 E1310.82863
G0 F3600 X60.913 Y120.309
G1 F1800 X-120.309 Y-60.913 E1792.91801
G0 F3600 X-120.309 Y-69.398
G92 E0
G1 F1800 X69.398 Y120.309 E504.6613
G0 F3600 X77.883 Y120.309
G1 F1800 X-120.309 Y-77.883 E1031.89451
G0 F3600 X-120.309 Y-86.368
G1 F1800 X86.368 Y120.309 E1581.69965
G0 F3600 X94.854 Y120.309
G92 E0
G1 F1800 X-120.309 Y-94.854 E572.37971
G0 F3600 X-120.309 Y-103.339
G1 F1800 X103.339 Y120.309 E1167.33135
G0 F3600 X111.824 Y120.309
G1 F1800 X-120.309 Y-111.824 E1784.8549
G0 F3600 X-120.309 Y-120.309
G92 E0
G1 F1800 X120.309 Y120.309 E640.09547
G0 F3600 X120.309 Y111.824
G1 F1800 X-111.824 Y-120.309 E1257.61903
G0 F3600 X-103.339 Y-120.309
G1 F1800 X120.309 Y103.339 E1852.57066
G0 F3600 X120.309 Y94.854
G92 E0
G1 F1800 X-94.854 Y-120.309 E572.37971
G0 F3600 X-86.368 Y-120.309
G1 F1800 X120.309 Y86.368 E1122.18485
G0 F3600 X120.309 Y77.883
G1 F1800 X-77.883 Y-120.309 E1649.41806
G0 F3600 X-69.398 Y-120.309
G92 E0
G1 F1800 X120.309 Y69.398 E504.6613
G0 F3600 X120.309 Y60.913
G1 F1800 X-60.913 Y-120.309 E986.75067
G0 F3600 X-52.427 Y-120.309
G1 F1800 X120.309 Y52.427 E1446.26547
G0 F3600 X120.309 Y43.942
G1 F1800 X-43.942 Y-120.309 E1883.20835
G0 F3600 X-35.457 Y-120.309
G92 E0
G1 F1800 X120.309 Y35.457 E414.37096
G0 F3600 X120.309 Y26.971
G1 F1800 X-26.971 Y-120.309 E806.16734
G0 F3600 X-18.486 Y-120.309
G1 F1800 X120.309 Y18.486 E1175.3918
G0 F3600 X120.309 Y10.001
G1 F1800 X-10.001 Y-120.309 E1522.04434
G0 F3600 X-1.516 Y-120.309
G1 F1800 X120.309 Y1.516 E1846.12496
G0 F3600 X120.309 Y-6.969
G92 E0
G1 F1800 X6.969 Y-120.309 E301.5087
G0 F3600 X15.454 Y-120.309
G1 F1800 X120.309 Y-15.454 E580.44548
G0 F3600 X120.309 Y-23.939
G1 F1800 X23.939 Y-120.309 E836.81035
G0 F3600 X32.425 Y-120.309
G1 F1800 X120.309 Y-32.425 E1070.60063
G0 F3600 X120.309 Y-40.91
G1 F1800 X40.91 Y-120.309 E1281.819
G0 F3600 X49.395 Y-120.309
G1 F1800 X120.309 Y-49.395 E1470.46544
G0 F3600 X120.309 Y-57.88
G1 F1800 X57.88 Y-120.309 E1636.53997
G0 F3600 X66.366 Y-120.309
G92 E0
G1 F1800 X120.309 Y-66.366 E143.49995
G0 F3600 X120.309 Y-74.851
G1 F1800 X74.851 Y-120.309 E264.42797
G0 F3600 X83.336 Y-120.309
G1 F1800 X120.309 Y-83.336 E362.78408
G0 F3600 X120.309 Y-91.822
G1 F1800 X91.822 Y-120.309 E438.56561
G0 F3600 X100.307 Y-120.309
G1 F1800 X120.309 Y-100.307 E491.77522
G0 F3600 X120.309 Y-108.792
G1 F1800 X108.792 Y-120.309 E522.41291
G0 F3600 X117.277 Y-120.309
G1 F1800 X120.309 Y-117.277 E530.47868
;MESH:NONMESH
G0 F600 X120.309 Y-117.277 Z4
G0 F3600 X-129 Y129
;TIME_ELAPSED:523.018139
;LAYER:1
M106 S255
;TYPE:WALL-INNER
;MESH:cube.stl
G1 F2700 X-129 Y-129 E1015.79104
G1 X129 Y-129 E1501.10339
G1 X129 Y129 E1986.41575
G92 E0
G1 X-129 Y129 E485.31236
G0 F5400 X-135 Y135
G1 F2700 X-135 Y-135 E993.19738
G1 X135 Y-135 E1501.08241
G1 X135 Y135 E2008.96744
G92 E0
G1 X-135 Y135 E507.88503
G0 F5400 X-140.93 Y140.93
G0 X-141 Y141
G1 F2700 X-141 Y-141 E1038.34272
G1 X141 Y-141 E1568.80041
G92 E0
G1 X141 Y141 E530.45769
G1 X-141 Y141 E1060.91539
G0 F5400 X-140.93 Y140.93
G0 X-147 Y147
;TYPE:WALL-OUTER
G1 F1800 X-147 Y-147 E1613.94575
G92 E0
G1 X147 Y-147 E553.03036
G1 X147 Y147 E1106.06072
G1 X-147 Y147 E1659.09109
G0 F5400 X-147 Y146.8
G0 X-140.93 Y140.93
G0 X-123.01 Y123.01
;TYPE:SKIN
G92 E0
G1 F1800 X-123.01 Y-123.01 E462.77731
G1 X123.01 Y-123.01 E925.55462
G1 X123.01 Y123.01 E1388.33193
G1 X-123.01 Y123.01 E1851.10925
G0 F5400 X-120.309 Y-117.277
G92 E0
G1 F1800 X-117.277 Y-120.309 E8.06577
G0 F5400 X-108.792 Y-120.309
G1 F1800 X-120.309 Y-108.792 E38.70346
G0 F5400 X-120.309 Y-100.307
G1 F1800 X-100.307 Y-120.309 E91.91307
G0 F5400 X-91.822 Y-120.309
G1 F1800 X-120.309 Y-91.822 E167.6946
G0 F5400 X-120.309 Y-83.336
G1 F1800 X-83.336 Y-120.309 E266.0507
G0 F5400 X-74.851 Y-120.309
G1 F1800 X-120.309 Y-74.851 E386.97873
G0 F5400 X-120.309 Y-66.366
G1 F1800 X-66.366 Y-120.309 E530.47868
G0 F5400 X-57.88 Y-120.309
G1 F1800 X-120.309 Y-57.88 E696.5532
G0 F5400 X-120.309 Y-49.395
G1 F1800 X-49.395 Y-120.309 E885.19965
G0 F5400 X-40.91 Y-120.309
G1 F1800 X-120.309 Y-40.91 E1096.41801
G0 F5400 X-120.309 Y-32.425
G1 F1800 X-32.425 Y-120.309 E1330.2083
G0 F5400 X-23.939 Y-120.309
G1 F1800 X-120.309 Y-23.939 E1586.57316
G0 F5400 X-120.309 Y-15.454
G92 E0
G1 F1800 X-15.454 Y-120.309 E278.93678
G0 F5400 X-6.969 Y-120.309
G1 F1800 X-120.309 Y-6.969 E580.44548
G0 F5400 X-120.309 Y1.516
G1 F1800 X1.516 Y-120.309 E904.52611
G0 F5400 X10.001 Y-120.309
G1 F1800 X-120.309 Y10.001 E1251.17865
G0 F5400 X-120.309 Y18.486
G1 F1800 X18.486 Y-120.309 E1620.40311
G0 F5400 X26.971 Y-120.309
G92 E0
G1 F1800 X-120.309 Y26.971 E391.79638
G0 F5400 X-120.309 Y35.457
G1 F1800 X35.457 Y-120.309 E806.16734
G0 F5400 X43.942 Y-120.309
G1 F1800 X-120.309 Y43.942 E1243.11022
G0 F5400 X-120.309 Y52.427
G1 F1800 X52.427 Y-120.309 E1702.62501
G0 F5400 X60.913 Y-120.309
G92 E0
G1 F1800 X-120.309 Y60.913 E482.08938
G0 F5400 X-120.309 Y69.398
G1 F1800 X69.398 Y-120.309 E986.75067
G0 F5400 X77.883 Y-120.309
G1 F1800 X-120.309 Y77.883 E1513.98389
G0 F5400 X-120.309 Y86.368
G1 F1800 X86.368 Y-120.309 E2063.78902
G0 F5400 X94.854 Y-120.309
G92 E0
G1 F1800 X-120.309 Y94.854 E572.37971
G0 F5400 X-120.309 Y103.339
G1 F1800 X103.339 Y-120.309 E1167.33135
G0 F5400 X111.824 Y-120.309
G1 F1800 X-120.309 Y111.824 E1784.8549
G0 F5400 X-120.309 Y120.309
G92 E0
G1 F1800 X120.309 Y-120.309 E640.09547
G0 F5400 X120.309 Y-111.824
G1 F1800 X-111.824 Y120.309 E1257.61903
G0 F5400 X-103.339 Y120.309
G1 F1800 X120.309 Y-103.339 E1852.57066
G0 F5400 X120.309 Y-94.854
G92 E0
G1 F1800 X-94.854 Y120.309 E572.37971
G0 F5400 X-86.368 Y120.309
G1 F1800 X120.309 Y-86.368 E1122.18485
G0 F5400 X120.309 Y-77.883
G1 F1800 X-77.883 Y120.309 E1649.41806
G0 F5400 X-69.398 Y120.309
G92 E0
G1 F1800 X120.309 Y-69.398 E504.6613
G0 F5400 X120.309 Y-60.913
G1 F1800 X-60.913 Y120.309 E986.75067
G0 F5400 X-52.427 Y120.309
G1 F1800 X120.309 Y-52.427 E1446.26547
G0 F5400 X120.309 Y-43.942
G1 F1800 X-43.942 Y120.309 E1883.20835
G0 F5400 X-35.457 Y120.309
G92 E0
G1 F1800 X120.309 Y-35.457 E414.37096
G0 F5400 X120.309 Y-26.971
G1 F1800 X-26.971 Y120.309 E806.16734
G0 F5400 X-18.486 Y120.309
G1 F1800 X120.309 Y-18.486 E1175.3918
G0 F5400 X120.309 Y-10.001
G1 F1800 X-10.001 Y120.309 E1522.04434
G0 F5400 X-1.516 Y120.309
G1 F1800 X120.309 Y-1.516 E1846.12496
G0 F5400 X120.309 Y6.969
G92 E0
G1 F1800 X6.969 Y120.309 E301.5087
G0 F5400 X15.454 Y120.309
G1 F1800 X120.309 Y15.454 E580.44548
G0 F5400 X120.309 Y23.939
G1 F1800 X23.939 Y120.309 E836.81035
G0 F5400 X32.425 Y120.309
G1 F1800 X120.309 Y32.425 E1070.60063
G0 F5400 X120.309 Y40.91
G1 F1800 X40.91 Y120.309 E1281.819
G0 F5400 X49.395 Y120.309
G1 F1800 X120.309 Y49.395 E1470.46544
G0 F5400 X120.309 Y57.88
G1 F1800 X57.88 Y120.309 E1636.53997
G0 F5400 X66.366 Y120.309
G92 E0
G1 F1800 X120.309 Y66.366 E143.49995
G0 F5400 X120.309 Y74.851
G1 F1800 X74.851 Y120.309 E264.42797
G0 F5400 X83.336 Y120.309
G1 F1800 X120.309 Y83.336 E362.78408
G0 F5400 X120.309 Y91.822
G1 F1800 X91.822 Y120.309 E438.56561
G0 F5400 X100.307 Y120.309
G1 F1800 X120.309 Y100.307 E491.77522
G0 F5400 X120.309 Y108.792
G1 F1800 X108.792 Y120.309 E522.41291
G0 F5400 X117.277 Y120.309
G1 F1800 X120.309 Y117.277 E530.47868
;MESH:NONMESH
G0 F600 X120.309 Y117.277 Z6
G0 F5400 X-129 Y129
;TIME_ELAPSED:1002.063993
;LAYER:2
;TYPE:WALL-INNER
;MESH:cube.stl
G1 F3600 X-129 Y-129 E1015.79104
G1 X129 Y-129 E1501.10339
G1 X129 Y129 E1986.41575
G92 E0
G1 X-129 Y129 E485.31236
G0 F7200 X-135 Y135
G1 F3600 X-135 Y-135 E993.19738
G1 X135 Y-135 E1501.08241
G1 X135 Y135 E2008.96744
G92 E0
G1 X-135 Y135 E507.88503
G0 F7200 X-140.93 Y140.93
G0 X-141 Y141
G1 F3600 X-141 Y-141 E1038.34272
G1 X141 Y-141 E1568.80041
G92 E0
G1 X141 Y141 E530.45769
G1 X-141 Y141 E1060.91539
G0 F7200 X-140.93 Y140.93
G0 X-147 Y147
;TYPE:WALL-OUTER
G1 F1800 X-147 Y-147 E1613.94575
G92 E0
G1 X147 Y-147 E553.03036
G1 X147 Y147 E1106.06072
G1 X-147 Y147 E1659.09109
G0 F7200 X-147 Y146.8
;MESH:NONMESH
G0 F600 X-147 Y146.8 Z8
G0 F7200 X-140.93 Y140.93
G0 X-129 Y129
;TIME_ELAPSED:1096.213701
;LAYER:3
;TYPE:WALL-INNER
;MESH:cube.stl
G92 E0
G1 F3600 X-129 Y-129 E485.31236
G1 X129 Y-129 E970.62472
G1 X129 Y129 E1455.93707
G1 X-129 Y129 E1941.24943
G0 F7200 X-135 Y135
G92 E0
G1 F3600 X-135 Y-135 E507.88503
G1 X135 Y-135 E1015.77005
G1 X135 Y135 E1523.65508
G1 X-135 Y135 E2031.5401
G0 F7200 X-140.93 Y140.93
G0 X-141 Y141
G92 E0
G1 F3600 X-141 Y-141 E530.45769
G1 X141 Y-141 E1060.91539
G1 X141 Y141 E1591.37308
G92 E0
G1 X-141 Y141 E530.45769
G0 F7200 X-140.93 Y140.93
G0 X-147 Y147
;TYPE:WALL-OUTER
G1 F1800 X-147 Y-147 E1083.48806
G1 X147 Y-147 E1636.51842
G92 E0
G1 X147 Y147 E553.03036
G1 X-147 Y147 E1106.06072
G0 F7200 X-147 Y146.8
;MESH:NONMESH
G0 F600 X-147 Y146.8 Z10
G0 F7200 X-140.93 Y140.93
G0 X-129 Y129
;TIME_ELAPSED:1190.354396
;LAYER:4
;TYPE:WALL-INNER
;MESH:cube.stl
G1 F3600 X-129 Y-129 E1591.37308
G92 E0
G1 X129 Y-129 E485.31236
G1 X129 Y129 E970.62472
G1 X-129 Y129 E1455.93707
G0 F7200 X-135 Y135
G1 F3600 X-135 Y-135 E1963.8221
G92 E0
G1 X135 Y-135 E507.88503
G1 X135 Y135 E1015.77005
G1 X-135 Y135 E1523.65508
G0 F7200 X-140.93 Y140.93
G0 X-141 Y141
G1 F3600 X-141 Y-141 E2054.11277
G92 E0
G1 X141 Y-141 E530.45769
G1 X141 Y141 E1060.91539
G1 X-141 Y141 E1591.37308
G0 F7200 X-140.93 Y140.93
G0 X-147 Y147
;TYPE:WALL-OUTER
G92 E0
G1 F1800 X-147 Y-147 E553.03036
G1 X147 Y-147 E1106.06072
G1 X147 Y147 E1659.09109
G92 E0
G1 X-147 Y147 E553.03036
G0 F7200 X-147 Y146.8
;MESH:NONMESH
G0 F600 X-147 Y146.8 Z12
G0 F7200 X-140.93 Y140.93
G0 X-129 Y129
;TIME_ELAPSED:1284.511195
;LAYER:5
;TYPE:WALL-INNER
;MESH:cube.stl
G1 F3600 X-129 Y-129 E1038.34272
G1 X129 Y-129 E1523.65508
G1 X129 Y129 E2008.96744
G92 E0
G1 X-129 Y129 E485.31236
G0 F7200 X-135 Y135
G1 F3600 X-135 Y-135 E993.19738
G1 X135 Y-135 E1501.08241
G1 X135 Y135 E2008.96744
G92 E0
G1 X-135 Y135 E507.88503
G0 F7200 X-140.93 Y140.93
G0 X-141 Y141
G1 F3600 X-141 Y-141 E1038.34272
G1 X141 Y-141 E1568.80041
G92 E0
G1 X141 Y141 E530.45769
G1 X-141 Y141 E1060.91539
G0 F7200 X-140.93 Y140.93
G0 X-147 Y147
;TYPE:WALL-OUTER
G1 F1800 X-147 Y-147 E1613.94575
G92 E0
G1 X147 Y-147 E553.03036
G1 X147 Y147 E1106.06072
G1 X-147 Y147 E1659.09109
G0 F7200 X-147 Y146.8
;MESH:NONMESH
G0 F600 X-147 Y146.8 Z14
G0 F7200 X-140.93 Y140.93
G0 X-129 Y129
;TIME_ELAPSED:1378.660914
;LAYER:6
;TYPE:WALL-INNER
;MESH:cube.stl
G92 E0
G1 F3600 X-129 Y-129 E485.31236
G1 X129 Y-129 E970.62472
G1 X129 Y129 E1455.93707
G1 X-129 Y129 E1941.24943
G0 F7200 X-135 Y135
G92 E0
G1 F3600 X-135 Y-135 E507.88503
G1 X135 Y-135 E1015.77005
G1 X135 Y135 E1523.65508
G1 X-135 Y135 E2031.5401
G0 F7200 X-140.93 Y140.93
G0 X-141 Y141
G92 E0
G1 F3600 X-141 Y-141 E530.45769
G1 X141 Y-141 E1060.91539
G1 X141 Y141 E1591.37308
G92 E0
G1 X-141 Y141 E530.45769
G0 F7200 X-140.93 Y140.93
G0 X-147 Y147
;TYPE:WALL-OUTER
G1 F1800 X-147 Y-147 E1083.48806
G1 X147 Y-147 E1636.51842
G92 E0
G1 X147 Y147 E553.03036
G1 X-147 Y147 E1106.06072
G0 F7200 X-147 Y146.8
;MESH:NONMESH
G0 F600 X-147 Y146.8 Z16
G0 F7200 X-140.93 Y140.93
G0 X-129 Y129
;TIME_ELAPSED:1472.801609
;LAYER:7
;TYPE:WALL-INNER
;MESH:cube.stl
G1 F3600 X-129 Y-129 E1591.37308
G92 E0
G1 X129 Y-129 E485.31236
G1 X129 Y129 E970.62472
G1 X-129 Y129 E1455.93707
G0 F7200 X-135 Y135
G1 F3600 X-135 Y-135 E1963.8221
G92 E0
G1 X135 Y-135 E507.88503
G1 X135 Y135 E1015.77005
G1 X-135 Y135 E1523.65508
G0 F7200 X-140.93 Y140.93
G0 X-141 Y141
G1 F3600 X-141 Y-141 E2054.11277
G92 E0
G1 X141 Y-141 E530.45769
G1 X141 Y141 E1060.91539
G1 X-141 Y141 E1591.37308
G0 F7200 X-140.93 Y140.93
G0 X-147 Y147
;TYPE:WALL-OUTER
G92 E0
G1 F1800 X-147 Y-147 E553.03036
G1 X147 Y-147 E1106.06072
G1 X147 Y147 E1659.09109
G92 E0
G1 X-147 Y147 E553.03036
G0 F7200 X-147 Y146.8
;MESH:NONMESH
G0 F600 X-147 Y146.8 Z18
G0 F7200 X-140.93 Y140.93
G0 X-129 Y129
;TIME_ELAPSED:1566.958408
;LAYER:8
;TYPE:WALL-INNER
;MESH:cube.stl
G1 F3600 X-129 Y-129 E1038.34272
G1 X129 Y-129 E1523.65508
G1 X129 Y129 E2008.96744
G92 E0
G1 X-129 Y129 E485.31236
G0 F7200 X-135 Y135
G1 F3600 X-135 Y-135 E993.19738
G1 X135 Y-135 E1501.08241
G1 X135 Y135 E2008.96744
G92 E0
G1 X-135 Y135 E507.88503
G0 F7200 X-140.93 Y140.93
G0 X-141 Y141
G1 F3600 X-141 Y-141 E1038.34272
G1 X141 Y-141 E1568.80041
G92 E0
G1 X141 Y141 E530.45769
G1 X-141 Y141 E1060.91539
G0 F7200 X-140.93 Y140.93
G0 X-147 Y147
;TYPE:WALL-OUTER
G1 F1800 X-147 Y-147 E1613.94575
G92 E0
G1 X147 Y-147 E553.03036
G1 X147 Y147 E1106.06072
G1 X-147 Y147 E1659.09109
G0 F7200 X-147 Y146.8
;MESH:NONMESH
G0 F600 X-147 Y146.8 Z20
G0 F7200 X-140.93 Y140.93
G0 X-129 Y129
;TIME_ELAPSED:1661.108127
;LAYER:9
;TYPE:WALL-INNER
;MESH:cube.stl
G92 E0
G1 F3600 X-129 Y-129 E485.31236
G1 X129 Y-129 E970.62472
G1 X129 Y129 E1455.93707
G1 X-129 Y129 E1941.24943
G0 F7200 X-135 Y135
G92 E0
G1 F3600 X-135 Y-135 E507.88503
G1 X135 Y-135 E1015.77005
G1 X135 Y135 E1523.65508
G1 X-135 Y135 E2031.5401
G0 F7200 X-140.93 Y140.93
G0 X-141 Y141
G92 E0
G1 F3600 X-141 Y-141 E530.45769
G1 X141 Y-141 E1060.91539
G1 X141 Y141 E1591.37308
G92 E0
G1 X-141 Y141 E530.45769
G0 F7200 X-140.93 Y140.93
G0 X-147 Y147
;TYPE:WALL-OUTER
G1 F1800 X-147 Y-147 E1083.48806
G1 X147 Y-147 E1636.51842
G92 E0
G1 X147 Y147 E553.03036
G1 X-147 Y147 E1106.06072
G0 F7200 X-147 Y146.8
;MESH:NONMESH
G0 F600 X-147 Y146.8 Z22
G0 F7200 X-140.93 Y140.93
G0 X-129 Y129
;TIME_ELAPSED:1755.248823
;LAYER:10
;TYPE:WALL-INNER
;MESH:cube.stl
G1 F3600 X-129 Y-129 E1591.37308
G92 E0
G1 X129 Y-129 E485.31236
G1 X129 Y129 E970.62472
